X:61
T:The Heather Breeze    Reel       Allan's   #61   pg 15
C:Trad/Anon.
B:Allan's Irish Fiddler (pub. Mozart Allen,  Glascow) date unknown
Z:FROM ALLAN'S TO NOTEWORTHY, FROM NOTEWORTHY TO ABC, MIDI AND .TXT BY VINCE
BRENNAN Dec. 2002 (HTTP://WWW.SOSYOURMOM.COM)
I:abc2nwc
M:2/2
L:1/8
K:G
F|DAcG dGBG|DFAF cFAF|DGBG dGBG|BdAc BGGF|
DGBG dGBG|DFAF cFAF|DGBG dGBG|BdAc BGBd||
g2({g}gf) gbag|fdde fgaf|dg({g}g)f gbag|fdcA BGBd|
g2({g}gf) gbag|fdde fgag|bgaf gage|dBAc BG G:|
